X:23
T:Harrow on the Hill,2parts. JNu.21
M:2/4
L:1/8
Q:1/4=90
S:James Nuttall MS,c1830?,Rossendale,East Lancs.
R:.Country-dance
O:England
A:East Lancashire
Z:vmp.Manchester Morris Men
V:1
V:2 clef=bass
K:D
[V:1] |: Adde | ff g/f/e/d/ | Aeef | fe e2 |
[V:2] |: D,A,F,A, | D,A, F,A, | E,A,G,A, | A,,A, A,,A, |
%
[V:1] Adde | ff g/f/e/d/ | cAAc | d>e d2 😐
[V:2] D,A,G,A, | D,A, D,A, | E,A,E,G, | D,A,D,2 😐
%
[V:1] |: BG EF/G/ | AF DE/F/ | GFED | CE A,2 |
[V:2] |: D,A, F,A, | D,A, F,A, | G,,E,^G,,E, | A,,E,A,,2 |
%
[V:1] BG E/F/G | AFDd | cd ef | d>e d2 😐
[V:2] D,A, F,A, | D,A,F,A, | A,,A, A,,A, | D,A,D,2 😐

